assets/img/bg-element3.svg

<?xml version="1.0" encoding="UTF-8"?>
<svg width="1230px" height="1095px" viewBox="0 0 1230 1095" version="1.1" xmlns="http://www.w3.org/2000/svg" xmlns:xlink="http://www.w3.org/1999/xlink">
    <!-- Generator: Sketch 50.2 (55047) - http://www.bohemiancoding.com/sketch -->
    <title>bg</title>
    <desc>Created with Sketch.</desc>
    <defs>
        <linearGradient x1="42.6445917%" y1="29.0913462%" x2="129.046292%" y2="97.0769231%" id="linearGradient-1">
            <stop stop-color="#FAD961" offset="0%"></stop>
            <stop stop-color="#F76B1C" offset="100%"></stop>
        </linearGradient>
    </defs>
    <g id="Design-v1" stroke="none" stroke-width="1" fill="none" fill-rule="evenodd">
        <g id="bg" fill="url(#linearGradient-1)">
            <path d="M427.394612,132.798332 L1055.24792,508.847705 C1092.57306,531.203396 1108.56203,577.058583 1093.22921,617.775258 L1000.31322,864.515962 C989.91507,892.128511 966.642739,912.890624 938.027401,920.08346 L253.060586,1092.25874 C204.854543,1104.37595 155.952882,1075.12018 143.835669,1026.91413 C143.770634,1026.6554 143.706749,1026.39639 143.644018,1026.13709 L2.51966569,442.808228 C-6.05174121,407.378843 7.59389433,370.277908 37.0789033,348.845583 L328.232748,137.209084 C357.415027,115.996809 396.444247,114.260777 427.394612,132.798332 Z" id="Polygon-Copy" opacity="0.100000001"></path>
            <path d="M558.394612,12.7983317 L1186.24792,388.847705 C1223.57306,411.203396 1239.56203,457.058583 1224.22921,497.775258 L1131.31322,744.515962 C1120.91507,772.128511 1097.64274,792.890624 1069.0274,800.08346 L384.060586,972.25874 C335.854543,984.375954 286.952882,955.120177 274.835669,906.914134 C274.770634,906.655404 274.706749,906.396386 274.644018,906.137088 L133.519666,322.808228 C124.948259,287.378843 138.593894,250.277908 168.078903,228.845583 L459.232748,17.2090843 C488.415027,-4.00319083 527.444247,-5.73922343 558.394612,12.7983317 Z" id="Polygon"></path>
        </g>
    </g>
</svg>

<svg width="1230" height="1095" viewBox="0 0 1230 1095" xmlns="http://www.w3.org/2000/svg"><title>bg</title><defs><linearGradient x1="42.645%" y1="29.091%" x2="129.046%" y2="97.077%" id="a"><stop stop-color="#FAD961" offset="0%"/><stop stop-color="#F76B1C" offset="100%"/></linearGradient></defs><g fill="url(#a)" fill-rule="evenodd"><path d="M427.395 132.798l627.853 376.05c37.325 22.355 53.314 68.21 37.981 108.927l-92.916 246.741a90 90 0 0 1-62.286 55.567L253.061 1092.26c-48.206 12.117-97.108-17.139-109.225-65.345a89.956 89.956 0 0 1-.192-.777L2.52 442.808c-8.572-35.43 5.074-72.53 34.559-93.962l291.154-211.637c29.182-21.212 68.211-22.948 99.162-4.41z" opacity=".1"/><path d="M558.395 12.798l627.853 376.05c37.325 22.355 53.314 68.21 37.981 108.927l-92.916 246.741a90 90 0 0 1-62.286 55.567L384.061 972.26c-48.206 12.117-97.108-17.139-109.225-65.345a89.976 89.976 0 0 1-.192-.777L133.52 322.808c-8.572-35.43 5.074-72.53 34.559-93.962L459.233 17.209c29.182-21.212 68.211-22.948 99.162-4.41z"/></g></svg>
